X:1
T:Tailor's Wife
M:C
L:1/8
Q:80
C:Trad.
S:Reel
K:HP
[| {g}e2{A}e3/2f/2{g}e3/2f/2{a}g3/2e/2 | \
{Gdc}d2{g}d3/2e/2{g}d3/2e/2{g}f3/2d/2 | \
{g}e2{A}e3/2f/2{g}e3/2f/2{a}g3/2e/2 |
a3/2g/2{a}f3/2d/2{g}e2{A}e :| \
a[ | \
c3/2B/2{d}A3/2c/2{g}B/2{d}G3/2{g}B2 | \
{g}c3/2B/2{d}A3/2c/2{g}e3/2f/2{g}e3/2d/2 |
{g}c3/2B/2{d}A3/2c/2{g}B/2{d}G3/2{g}d3/2f/2 | \
{g}e3/2c/2{g}d3/2B/2{g}e2{A}ea | \
c3/2B/2{d}A3/2c/2{g}B/2{d}G3/2{g}B2 |
{g}c3/2B/2{d}A3/2c/2{g}e3/2f/2a3/2d/2 | \
{g}c3/2B/2{d}A3/2c/2{g}B/2{d}G3/2{g}d3/2f/2 | \
{g}e3/2c/2{g}d3/2B/2{g}e2{A}e2|]
